packages/kaspersky-hexa-ui-icons/src/iconsSVGs/24/HomeDevice.svg

<svg width="24" height="24" viewBox="0 0 24 24" fill="none" xmlns="http://www.w3.org/2000/svg">
<path fill-rule="evenodd" clip-rule="evenodd" d="M10.6621 2.35887C11.4227 1.67432 12.5773 1.67432 13.3379 2.35887L17.3379 5.95887C17.7594 6.33815 18 6.87849 18 7.44546V12.0001C18 13.657 16.6569 15.0001 15 15.0001H13V16.1708C13.8524 16.4721 14.528 17.1477 14.8293 18.0001H19C19.5523 18.0001 20 18.4478 20 19.0001C20 19.5524 19.5523 20.0001 19 20.0001H14.8293C14.4175 21.1653 13.3062 22.0001 12 22.0001C10.6938 22.0001 9.58254 21.1653 9.17071 20.0001H5C4.44772 20.0001 4 19.5524 4 19.0001C4 18.4478 4.44772 18.0001 5 18.0001H9.17071C9.47199 17.1477 10.1476 16.4721 11 16.1708V15.0001H9C7.34315 15.0001 6 13.6569 6 12.0001V7.44546C6 6.87849 6.24064 6.33816 6.66207 5.95887L10.6621 2.35887ZM13 13.0001V11.0001C13 10.4478 12.5523 10.0001 12 10.0001C11.4477 10.0001 11 10.4478 11 11.0001V13.0001H9C8.44772 13.0001 8 12.5524 8 12.0001V7.44546L12 3.84546L16 7.44546V12.0001C16 12.5524 15.5523 13.0001 15 13.0001H13ZM12 18.0001C11.4477 18.0001 11 18.4478 11 19.0001C11 19.5524 11.4477 20.0001 12 20.0001C12.5523 20.0001 13 19.5524 13 19.0001C13 18.4478 12.5523 18.0001 12 18.0001Z" fill="black"/>
</svg>

<svg xmlns="http://www.w3.org/2000/svg" width="24" height="24" fill="none" viewBox="0 0 24 24"><path fill="#000" fill-rule="evenodd" d="M10.6621 2.3589c.7606-.6846 1.9152-.6846 2.6758 0l4 3.6c.4215.3792.6621.9196.6621 1.4866V12c0 1.6569-1.3431 3-3 3h-2v1.1707A3.009 3.009 0 0 1 14.8293 18H19c.5523 0 1 .4477 1 1s-.4477 1-1 1h-4.1707c-.4118 1.1652-1.5231 2-2.8293 2s-2.4175-.8348-2.8293-2H5c-.5523 0-1-.4477-1-1s.4477-1 1-1h4.1707A3.009 3.009 0 0 1 11 16.1708v-1.1707H9c-1.6569 0-3-1.3432-3-3V7.4455a2 2 0 0 1 .662-1.4866zM13 13v-2c0-.5523-.4477-1-1-1s-1 .4477-1 1v2H9c-.5523 0-1-.4477-1-1V7.4455l4-3.6 4 3.6V12c0 .5523-.4477 1-1 1zm-1 5c-.5523 0-1 .4477-1 1s.4477 1 1 1 1-.4477 1-1-.4477-1-1-1"/></svg>
